assets/dude/Did–Loretta.svg

<svg width="225" height="106" viewBox="0 0 225 106" fill="none" xmlns="http://www.w3.org/2000/svg">
<path d="M44.9897 0.5C27.9097 0.5 26.2297 5.54 24.9697 5.54C24.8297 5.54 24.6897 5.4 24.6897 5.26C24.6897 5.12 24.8297 4.7 24.8297 4.42C24.8297 2.74 23.5697 1.48 21.8897 1.48C20.2097 1.48 18.9497 2.74 18.9497 4.42C18.9497 4.7 19.0897 5.12 19.0897 5.26C19.0897 5.4 18.9497 5.54 18.8097 5.54C17.2697 5.54 17.1297 2.18 10.9697 2.18C5.08973 2.18 0.469727 7.08 0.469727 12.96V37.74C0.469727 38.44 1.02973 39 1.72973 39H15.5897C16.2897 39 16.8497 39.56 16.8497 40.26V65.46C16.8497 66.16 16.2897 66.72 15.5897 66.72H1.72973C1.02973 66.72 0.469727 67.28 0.469727 67.98V92.76C0.469727 98.64 5.08973 103.54 10.9697 103.54C17.1297 103.54 17.2697 100.18 18.8097 100.18C18.9497 100.18 19.0897 100.32 19.0897 100.46C19.0897 100.6 18.9497 101.02 18.9497 101.3C18.9497 102.98 20.2097 104.24 21.8897 104.24C23.5697 104.24 24.8297 102.98 24.8297 101.3C24.8297 101.02 24.6897 100.6 24.6897 100.46C24.6897 100.32 24.8297 100.18 24.9697 100.18C26.2297 100.18 27.9097 105.22 44.9897 105.22C75.6497 105.22 83.9097 88.42 84.3297 71.76V33.96C83.9097 17.3 75.6497 0.5 44.9897 0.5ZM26.9297 65.46V40.26C26.9297 39.56 27.4897 39 28.1897 39H65.4297C70.3297 39 74.2497 42.92 74.2497 47.82V57.9C74.2497 62.8 70.3297 66.72 65.4297 66.72H28.1897C27.4897 66.72 26.9297 66.16 26.9297 65.46Z" fill="#FF1C31"/>
<path d="M117.574 40.26C117.574 39.56 118.134 39 118.834 39H132.694C133.394 39 133.954 38.44 133.954 37.74V12.96C133.954 6.94 129.334 2.18 123.454 2.18C117.154 2.18 117.154 5.54 115.614 5.54C115.474 5.54 115.334 5.4 115.334 5.26C115.334 5.12 115.474 4.7 115.474 4.42C115.474 2.74 114.214 1.48 112.534 1.48C110.854 1.48 109.594 2.74 109.594 4.42C109.594 4.7 109.734 5.12 109.734 5.26C109.734 5.4 109.594 5.54 109.454 5.54C107.914 5.54 107.774 2.18 101.614 2.18C95.7343 2.18 91.1143 6.94 91.1143 12.96V37.74C91.1143 38.44 91.6743 39 92.3743 39H106.234C106.934 39 107.494 39.56 107.494 40.26V65.46C107.494 66.16 106.934 66.72 106.234 66.72H92.3743C91.6743 66.72 91.1143 67.28 91.1143 67.98V92.9C91.1143 98.78 95.7343 103.54 101.614 103.54C107.774 103.54 107.914 100.18 109.454 100.18C109.594 100.18 109.734 100.32 109.734 100.46C109.734 100.6 109.594 101.02 109.594 101.3C109.594 102.98 110.854 104.24 112.534 104.24C114.214 104.24 115.474 102.98 115.474 101.3C115.474 101.02 115.334 100.6 115.334 100.46C115.334 100.32 115.474 100.18 115.614 100.18C117.154 100.18 117.154 103.54 123.454 103.54C129.334 103.54 133.954 98.78 133.954 92.9V67.98C133.954 67.28 133.394 66.72 132.694 66.72H118.834C118.134 66.72 117.574 66.16 117.574 65.46V40.26Z" fill="#FF1C31"/>
<path d="M185.126 0.5C168.046 0.5 166.366 5.54 165.106 5.54C164.966 5.54 164.826 5.4 164.826 5.26C164.826 5.12 164.966 4.7 164.966 4.42C164.966 2.74 163.706 1.48 162.026 1.48C160.346 1.48 159.086 2.74 159.086 4.42C159.086 4.7 159.226 5.12 159.226 5.26C159.226 5.4 159.086 5.54 158.946 5.54C157.406 5.54 157.266 2.18 151.106 2.18C145.226 2.18 140.606 7.08 140.606 12.96V37.74C140.606 38.44 141.166 39 141.866 39H155.726C156.426 39 156.986 39.56 156.986 40.26V65.46C156.986 66.16 156.426 66.72 155.726 66.72H141.866C141.166 66.72 140.606 67.28 140.606 67.98V92.76C140.606 98.64 145.226 103.54 151.106 103.54C157.266 103.54 157.406 100.18 158.946 100.18C159.086 100.18 159.226 100.32 159.226 100.46C159.226 100.6 159.086 101.02 159.086 101.3C159.086 102.98 160.346 104.24 162.026 104.24C163.706 104.24 164.966 102.98 164.966 101.3C164.966 101.02 164.826 100.6 164.826 100.46C164.826 100.32 164.966 100.18 165.106 100.18C166.366 100.18 168.046 105.22 185.126 105.22C215.786 105.22 224.046 88.42 224.466 71.76V33.96C224.046 17.3 215.786 0.5 185.126 0.5ZM167.066 65.46V40.26C167.066 39.56 167.626 39 168.326 39H205.566C210.466 39 214.386 42.92 214.386 47.82V57.9C214.386 62.8 210.466 66.72 205.566 66.72H168.326C167.626 66.72 167.066 66.16 167.066 65.46Z" fill="#FF1C31"/>
</svg>

<svg xmlns="http://www.w3.org/2000/svg" fill="none" viewBox="0 0 225 106"><path fill="#FF1C31" d="M44.99.5C27.91.5 26.23 5.54 24.97 5.54c-.14 0-.28-.14-.28-.28s.14-.56.14-.84c0-1.68-1.26-2.94-2.94-2.94s-2.94 1.26-2.94 2.94c0 .28.14.7.14.84s-.14.28-.28.28c-1.54 0-1.68-3.36-7.84-3.36-5.88 0-10.5 4.9-10.5 10.78v24.78c0 .7.56 1.26 1.26 1.26h13.86c.7 0 1.26.56 1.26 1.26v25.2c0 .7-.56 1.26-1.26 1.26H1.73c-.7 0-1.26.56-1.26 1.26v24.78c0 5.88 4.62 10.78 10.5 10.78 6.16 0 6.3-3.36 7.84-3.36.14 0 .28.14.28.28s-.14.56-.14.84c0 1.68 1.26 2.94 2.94 2.94s2.94-1.26 2.94-2.94c0-.28-.14-.7-.14-.84s.14-.28.28-.28c1.26 0 2.94 5.04 20.02 5.04 30.66 0 38.92-16.8 39.34-33.46v-37.8C83.91 17.3 75.65.5 44.99.5zM26.93 65.46v-25.2c0-.7.56-1.26 1.26-1.26h37.24c4.9 0 8.82 3.92 8.82 8.82V57.9c0 4.9-3.92 8.82-8.82 8.82H28.19c-.7 0-1.26-.56-1.26-1.26zM117.574 40.26c0-.7.56-1.26 1.26-1.26h13.86c.7 0 1.26-.56 1.26-1.26V12.96c0-6.02-4.62-10.78-10.5-10.78-6.3 0-6.3 3.36-7.84 3.36-.14 0-.28-.14-.28-.28s.14-.56.14-.84c0-1.68-1.26-2.94-2.94-2.94s-2.94 1.26-2.94 2.94c0 .28.14.7.14.84s-.14.28-.28.28c-1.54 0-1.68-3.36-7.84-3.36-5.88 0-10.5 4.76-10.5 10.78v24.78c0 .7.56 1.26 1.26 1.26h13.86c.7 0 1.26.56 1.26 1.26v25.2c0 .7-.56 1.26-1.26 1.26h-13.86c-.7 0-1.26.56-1.26 1.26V92.9c0 5.88 4.62 10.64 10.5 10.64 6.16 0 6.3-3.36 7.84-3.36.14 0 .28.14.28.28s-.14.56-.14.84c0 1.68 1.26 2.94 2.94 2.94s2.94-1.26 2.94-2.94c0-.28-.14-.7-.14-.84s.14-.28.28-.28c1.54 0 1.54 3.36 7.84 3.36 5.88 0 10.5-4.76 10.5-10.64V67.98c0-.7-.56-1.26-1.26-1.26h-13.86c-.7 0-1.26-.56-1.26-1.26v-25.2zM185.126.5c-17.08 0-18.76 5.04-20.02 5.04-.14 0-.28-.14-.28-.28s.14-.56.14-.84c0-1.68-1.26-2.94-2.94-2.94s-2.94 1.26-2.94 2.94c0 .28.14.7.14.84s-.14.28-.28.28c-1.54 0-1.68-3.36-7.84-3.36-5.88 0-10.5 4.9-10.5 10.78v24.78c0 .7.56 1.26 1.26 1.26h13.86c.7 0 1.26.56 1.26 1.26v25.2c0 .7-.56 1.26-1.26 1.26h-13.86c-.7 0-1.26.56-1.26 1.26v24.78c0 5.88 4.62 10.78 10.5 10.78 6.16 0 6.3-3.36 7.84-3.36.14 0 .28.14.28.28s-.14.56-.14.84c0 1.68 1.26 2.94 2.94 2.94s2.94-1.26 2.94-2.94c0-.28-.14-.7-.14-.84s.14-.28.28-.28c1.26 0 2.94 5.04 20.02 5.04 30.66 0 38.92-16.8 39.34-33.46v-37.8C224.046 17.3 215.786.5 185.126.5zm-18.06 64.96v-25.2c0-.7.56-1.26 1.26-1.26h37.24c4.9 0 8.82 3.92 8.82 8.82V57.9c0 4.9-3.92 8.82-8.82 8.82h-37.24c-.7 0-1.26-.56-1.26-1.26z"/></svg>
